X: 36203
T: Scotty Fitzgerald's
R: jig
M: 6/8
K: Amajor
|:ABA c2d|eag fed|cBA EAc|TB3 B2c|
ABA c2d|eag fed|{d}cBA EcB|1 [A3A3] [E3A3]:|2 [A3A3] {e}a3|
{a}c'2z a3|aga e2d|cBA EAc|B3 B2e|
{e}c'2z a3|aga ecA|dcd bag|a3 {a}e3|
{ea}c'2z a3|aga e2d|TcBA aec|B3 {Bc}[d3e3]|
cde Ace|def Bba|gfe dcB|A3 A2E||

